X:1
T:11th of September, The
M:3/4
L:1/8
R:Minuet
B:Moffat - Dances of the Olden Time (1922, p. 8)
Z:AK/FIddler's Companion
K:Gmin
{G}g>d B2 TA2{GA}|G4 D2|E>F G2c2|^F>G [F4A4]|
{G}g>d B2 TA2{GA}|G4 g2|f/e/d/c/ [G2B2] A>G|G6:|
|:e>c d2 f2|c>B c4|e>d e2g2|d>c d4|
G3E (3GBe|f3 F (3Bdf|a/g/f/e/ d2 c>B|B3 A G^F|
{G}g>d B2 TA2{GA}|G4 D2|E>F G2 c2|^F>G A4|
{G}g>d B2 TA2{GA}|G4 g2|f/e/d/c/ B2 ~A>G|G6:|]





%vocalfont Times-Roman 13.0
